X: 4412
M: 3/4
L: 1/8
K: G
d^c |\
d2B2A2 | G4Bc | d2g2^d2 | e4ee |\
e2c2B2 | A4Bc |[1 d2e2d2 | B4 :|\
[2 f>e d>cE>F | G4 H|: f2 |\
g^de2e2 | fed2d2 | ed^c2c2 |
d4d2 |\
e=cA2(fe) | dBG2(AG) | FAd2d2 | "_D.C."G4 :| [K:=f]\
[K:C]|: "Trio."e2 |\
(ge)ceG2 | (ge)ceG2 | EG cege | f4(de) |\
(fd)BdG2 | (fd)BdG2 |
(ge)ceG2 | (ge)ceG2 | EG cege | f4(de) |\
(fd)BdG2 | (fd)BdG2 | (fa) (df) (Bd) | "_D.C."c4 :|


